!!!OTL: Moczny Boze zwysokosci
**kern
*staff1
=1-
*clefF3
*k[b-]
*M3/1
1r
1r
1G
=2
0D
1A
=3
0D
1C
=4
1D
1A
1D
=5
0.A
=6
!!linebreak:original
1r
1r
1B-
=7
0A
1F
=8
0A
1G
=9
1F
0G
=10
0.D
!!linebreak:original
=11
1D
0A
=12
1F
0G
=13
1G
1F
0G
=14
0D
==
*-
!!title: @{OTL}, @{GTL}, ed. @{ENC}
!!!pag:
!!!GTL: Hymnbook D
!!!EFL: 
!!!YEM: Creative Commons CC/BY/NC/SA 4.0
!!!ENC: Marcin Konik
!!!END: 2015-0m-dd
!!!EED: Marcin Konik
!!!EEV: 
!!!ONB: Encoded in vim by Marcin Konik
!!!CharacterEncoding: utf-8
!!!RDF**kern: l=long note in original notation
!!!RDF**kern: i=editorial accidental
!!muse2ps: z14jc180F
!!!COM: Anonim
!!!CDT: [?]
!!!TXO: Polish
!!!ODT: 
!!!GTL: Hymnbook D
!!!ARL: Opactwo św. Wojciecha, Staniątki 
!!!voices:	1
